X:1
T:Title
%%score { ( 1 4 5 ) | ( 2 3 ) }
L:1/8
Q:1/4=100
M:4/4
K:Eb
V:1 treble nm="Grand Piano"
V:4 treble 
V:5 treble 
V:2 bass 
V:3 bass 
V:1
 [G,B,]2 E>F [B,G]3 [B,G] | [CA]2 E>F [B,G]4 | [DF]2 [EG]>[C=A] [DB]3 D | %3
w: D.~B.~Towner * * * *|||
 [=A,F]2[K:bass] E>C B,2 _A,2 | [G,B,]2[K:treble] E>F [B,G]3 [B,G] | [CA]2 E>F [B,G]4 | %6
w: |||
 F2 _G>G =GBE[CA] | [B,G]3 [A,F] [E,G,E]4 | z2 A6 | z2 G6 | FFFF G2 =A2 | B2- [FB-][EB-] [DB]4 | %12
w: ||||||
 z2 B6 | z2 c6 |[M:17/16] [Ad][Ad][Ge][EGB]E-<ED3/2F |[M:4/4] E6 z2 |] %16
w: ||||
V:2
 z2 G,>A, [E,,E,]4 | z2 C>=B, [E,,E,]4 | [B,,F,]2 [F,,F,]2 z2 z B, | F,C, F,,2 [B,,D,]4 | %4
 z2 G,>A, [E,,E,]4 | z2 C>=B, [E,,E,]4 | [B,D]2 [=A,D]>[D,C] B,G,[C,E,G,][A,,E,] | %7
 [B,,E,]3 [B,,D,] E,,4 | z2 F6 | E2 E2[K:bass] E,E,E,E, | %10
 [F,B,D][F,B,D][F,B,D][F,B,D] [F,=A,E]2 [F,CE]2 | z2 A,G, F,4 | z2 G6[K:bass] | z2 A6[K:bass] | %14
[M:17/16] [F,B,][F,B,][E,B,]E, z/ z/ z B,3/2[B,,A,B,] |[M:4/4] [E,G,B,]6 z2 |] %16
V:3
 [E,,E,]4 z4 | [A,,E,]4 z4 | z4 [B,,F,]4 | x8 | [E,,E,]4 z4 | [A,,E,]4 z4 | z4 E,2 z2 | x8 | %8
 F2 z2 B,B,B,B, | x4[K:bass] x4 | x8 | B,,8 | E2 z2[K:bass] E,E,E,E, | B2 z2 A,A,A,[K:bass]A, | %14
[M:17/16] z/ z/ z/ z/ z/ z/ z B,,/-B,,/-B,,/-B,,-<B,, z |[M:4/4] x8 |] %16
V:4
 x8 | x8 | x8 | z2[K:bass] [E,=A,]2 z4 | x2[K:treble] x6 | x8 | x8 | x8 | A2 z2 DDDD | z4 E4 | x8 | %11
 [B,D]2 z2 z4 | G2 z2 EEEE | _d2 z2 EEEE |[M:17/16] z/ z/ z/ z/ z/ z/ z G/-G/-G/-G-<G z | %15
[M:4/4] x8 |] %16
V:5
 x8 | x8 | x8 | x2[K:bass] x6 | x2[K:treble] x6 | x8 | x8 | x8 | x8 | G2 z2 z CB,B, | x8 | x8 | %12
 x8 | x8 |[M:17/16] x17/2 |[M:4/4] x8 |] %16

